icon/ir/3d-select-point.svg

<svg stroke-width="1.5" viewBox="0 0 24 24" fill="none" xmlns="http://www.w3.org/2000/svg" height="1em" width="1em">
  <path d="M12 13C12.5523 13 13 12.5523 13 12C13 11.4477 12.5523 11 12 11C11.4477 11 11 11.4477 11 12C11 12.5523 11.4477 13 12 13Z" fill="currentColor" stroke="currentColor" stroke-linecap="round" stroke-linejoin="round"/>
  <path d="M21 7.35304L21 16.647C21 16.8649 20.8819 17.0656 20.6914 17.1715L12.2914 21.8381C12.1102 21.9388 11.8898 21.9388 11.7086 21.8381L3.30861 17.1715C3.11814 17.0656 3 16.8649 3 16.647L2.99998 7.35304C2.99998 7.13514 3.11812 6.93437 3.3086 6.82855L11.7086 2.16188C11.8898 2.06121 12.1102 2.06121 12.2914 2.16188L20.6914 6.82855C20.8818 6.93437 21 7.13514 21 7.35304Z" stroke="currentColor" stroke-linecap="round" stroke-linejoin="round"/>
</svg>

<svg width="24" height="24" stroke-width="1.5" fill="none" xmlns="http://www.w3.org/2000/svg"><path d="M12 13a1 1 0 1 0 0-2 1 1 0 0 0 0 2Z" fill="currentColor" stroke="currentColor" stroke-linecap="round" stroke-linejoin="round"/><path d="M21 7.353v9.294a.6.6 0 0 1-.309.525l-8.4 4.666a.6.6 0 0 1-.582 0l-8.4-4.666A.6.6 0 0 1 3 16.647V7.353a.6.6 0 0 1 .309-.524l8.4-4.667a.6.6 0 0 1 .582 0l8.4 4.667a.6.6 0 0 1 .309.524Z" stroke="currentColor" stroke-linecap="round" stroke-linejoin="round"/></svg>
